X: 288
T: Benim Yârim Üzer Hâlim
C: Ahmet Uzel
O: Turkey
F: http://compmusic.upf.edu/node/140
N: hicaz-humayun--sarki--devrihindi--benim_yarim--ahmet_uzel
N: makam= hicaz-humayun
N: form= sarki
N: usul= devrihindi = 7/4
M: 7/4
L: 1/16
K: C _7/8B ^c  
Q: 1/4=84
%%MIDI tuningsystem comma53
G2 d4 {g}f3/2e/ dc d4  | A2 Ac BA A3/2G/ G^F G4  | \
w:  ARANAĞME  |   | 
G2 d3e {g}f3/2e/ dc d2 g2  | 
w:   | 
gf fe ed e3/2d/ dc d4  | cd ef/g/ fe d3/2c/ B2 c4  | 
w:   |   | 
AB cd/e/ dc c3/2B/ BA G4  | ^FG AB cd g3/2f/ ed d3/2c/ B2  | 
w:   |   | 
AB cd/e/ dc c3/2B/ BA A4  | G2 d3e f3/2e/ dc d4  | \
w:   |  Be nim  *  yâ *  *  *  rim   | 
A2 Ac BA AG G^F G4  | 
w:  ü zer  *  *  *  hâ *  *  *  lim    | 
G2 d3e f3/2e/ dc d2 g2  | gf fe2d ed dc .d4  | \
w:  Be nim  *  yâ *  *  *  rim   |  ü *  zer  *  *  hâ *  *  *  lim    | 
d2 d3a ag fe a3/2g/ f/e/d  | 
w:  Ben_ ağ *  lar *  *  *  ken   | 
gf fe2d d3/2c/ BA B4  | G2 A4 B/A/B/c/ BA G3/2^F/ G2  | 
w:  gü *  ler  *  *  zâ *  *  *  lim    |  Ben_ ağ lar *  *  *  *  *  ken   | 
AB cd/e/ dc c3/2B/ BA A4  | d2 ^f4 gf f^e f2 fa  | 
w:  gü *  ler  *  *  *  *  zâ *  *  *  lim    |  Ye ter  çek *  *  *  tim   | 
ag gf2e ed de dc/B/ c2  | d2 d3c d3/2c/ df e/d/c/B/ A2  | 
w:  bu  *  ve *  *  bâ *  *  *  lim    |  Ye ter  *  çek *  *  *  tim   | 
gf fe2d e3/2d/ dc d4  | d2 d3a ag fe a3/2g/ f/e/d  | 
w:  bu  *  ve *  *  bâ *  *  *  lim    |  Ba na  *  bin  *  *  *  cevr_  | 
gf fe2d d3/2c/ BA .B4  | G2 A4 B/A/B/c/ BA G3/2^F/ G2  | 
w:  e *  der  *  *  zâ *  *  *  lim    |  Ba na  bin  *  *  *  *  *  cevr_  | 
AB cd {e}dc c3/2B/ BA A4  | G2 d4 {g}f3/2e/ dc d4  | \
w:  e *  der  *  *  *  *  zâ *  *  *  lim    |  ARANAĞME  | 
A2 Ac BA A3/2G/ G^F G4  | 
w:   | 
G2 d3e {g}f3/2e/ dc d2 g2  | gf fe ed e3/2d/ dc d4  | \
w:   |   | 
cd ef/g/ fe d3/2c/ B2 c4  | 
w:   | 
AB cd/e/ dc c3/2B/ BA G4  | ^FG AB cd g3/2f/ ed d3/2c/ B2  | 
w:   |   | 
AB cd/e/ dc c3/2B/ BA A4  | G2 d3e f3/2e/ dc d4  | \
w:   |  Be nim  *  yâ *  *  *  rim   | 
A2 Ac BA AG G^F G4  | 
w:  ü zer  *  *  *  hâ *  *  *  lim    | 
G2 d3e f3/2e/ dc d2 g2  | gf fe2d ed dc .d4  | \
w:  Be nim  *  yâ *  *  *  rim   |  ü *  zer  *  *  hâ *  *  *  lim    | 
d2 d3a ag fe a3/2g/ f/e/d  | 
w:  Ben_ ağ *  lar *  *  *  ken   | 
gf fe2d d3/2c/ BA B4  | G2 A4 B/A/B/c/ BA G3/2^F/ G2  | 
w:  gü *  ler  *  *  zâ *  *  *  lim    |  Ben_ ağ lar *  *  *  *  *  ken   | 
AB cd/e/ dc c3/2B/ BA A4  | d2 ^f4 gf f^e f2 fa  | 
w:  gü *  ler  *  *  *  *  zâ *  *  *  lim    |  Ye ter  çek *  *  *  tim   | 
ag gf2e ed de dc/B/ c2  | d2 d3c d3/2c/ df e/d/c/B/ A2  | 
w:  bu  *  ve *  *  bâ *  *  *  lim    |  Ye ter  *  çek *  *  *  tim   | 
gf fe2d e3/2d/ dc d4  | d2 d3a ag fe a3/2g/ f/e/d  | 
w:  bu  *  ve *  *  bâ *  *  *  lim    |  Ba na  *  bin  *  *  *  cevr_  | 
gf fe2d d3/2c/ BA .B4  | G2 A4 B/A/B/c/ BA G3/2^F/ G2  | 
w:  e *  der  *  *  zâ *  *  *  lim    |  Ba na  bin  *  *  *  *  *  cevr_  | 
AB cd {e}dc c3/2B/ BA A4  | |


